images/foodle/icons/Icon-05-Development.svg

<svg width="99" height="125" viewBox="0 0 99 125" fill="none" xmlns="http://www.w3.org/2000/svg">
<path d="M49.347 115.962C42.3342 115.962 35.3313 115.902 28.3185 116.001C26.5998 116.031 25.8788 115.675 26.1159 113.838C26.3134 112.287 25.464 110.351 28.437 110.539C29.4543 110.598 28.8123 108.979 28.9605 108.129C29.0889 107.408 28.8025 106.845 27.9431 106.993C26.2047 107.299 25.8887 106.312 26.1751 104.978C26.4517 103.714 24.9207 101.422 28.0913 101.64C29.7507 101.758 28.7926 100.247 28.9407 99.4865C29.079 98.8149 29.3062 97.8469 27.9431 97.8864C27.2221 97.9062 25.8294 98.3506 26.2048 96.8691C26.5603 95.4764 24.7528 93.333 27.4394 92.7206C28.5456 92.4737 28.0715 91.7724 27.9826 91.2885C27.5579 88.9476 26.6789 86.824 25.217 84.8683C17.9968 75.2084 12.8903 64.5509 11.468 52.481C9.98641 39.9271 14.4707 29.319 23.7256 21.0221C34.6893 11.224 47.5987 8.51761 61.5256 13.229C75.5709 17.98 83.9172 28.1436 86.9198 42.6137C88.5496 50.4562 86.5741 57.9134 84.0258 65.2522C81.5269 72.4329 77.8624 79.0111 73.2498 85.0461C71.8275 86.9129 70.9879 88.9772 70.6027 91.2489C70.5237 91.6934 70.0792 92.3256 70.8398 92.6713C71.383 92.9182 72.4102 92.2564 72.4497 93.4516C72.4893 94.785 72.6177 96.1579 72.3806 97.4518C72.2226 98.3309 71.1657 97.8963 70.5336 97.8963C59.1155 97.9259 47.6975 97.9457 36.2795 97.8765C34.7288 97.8667 34.1164 98.1037 34.1164 99.8618C34.1263 101.561 34.7781 101.709 36.1807 101.709C47.5197 101.66 58.8587 101.748 70.1977 101.62C72.351 101.59 72.667 102.361 72.4991 104.158C72.3608 105.66 72.9732 107.092 70.2768 107.043C58.9378 106.845 47.5987 106.993 36.2597 106.924C34.6399 106.914 34.1855 107.299 34.1164 108.979C34.0374 110.964 35.1436 110.667 36.319 110.667C47.658 110.658 58.997 110.747 70.336 110.598C72.7164 110.569 72.5288 111.744 72.4893 113.285C72.4497 114.747 72.8547 116.09 70.3755 116.021C63.3726 115.833 56.3598 115.962 49.347 115.962ZM49.3766 92.3256C54.0189 92.3256 58.6612 92.2663 63.3035 92.3552C64.706 92.3848 65.2098 91.9403 65.3974 90.5575C65.8617 87.1499 67.2346 84.1176 69.3779 81.3816C72.4893 77.411 75.0277 73.065 77.0821 68.4623C79.9564 62.0421 82.5344 55.3651 82.1887 48.3029C81.517 34.6428 74.8005 24.4693 62.1478 19.106C49.5149 13.7426 37.5339 15.8366 27.2715 24.9829C19.1722 32.2031 15.2905 41.4679 16.7325 52.4217C18.1252 63.0101 22.5798 72.4131 28.9012 80.9273C31.1137 83.9003 32.7434 87.061 33.2077 90.7254C33.3855 92.1083 33.9781 92.3552 35.193 92.3453C39.9242 92.286 44.6553 92.3256 49.3766 92.3256Z" fill="#2C3136"/>
<path d="M49.2878 119.656C54.3153 119.656 59.3527 119.784 64.3703 119.596C66.8494 119.508 66.2173 121.039 66.2371 122.323C66.2568 123.666 66.7112 125.039 64.2912 124.999C54.3153 124.851 44.3393 124.851 34.3634 124.999C31.5089 125.039 32.5657 123.221 32.3682 121.898C32.1212 120.278 32.5262 119.547 34.4424 119.606C39.3909 119.764 44.3393 119.656 49.2878 119.656Z" fill="#2C3136"/>
<path d="M51.9249 3.85535C51.9249 4.01338 51.9447 4.17142 51.9249 4.32945C51.757 5.28754 52.4781 6.75924 51.4607 7.10494C50.1964 7.53954 48.6655 7.24322 47.253 7.20371C46.769 7.19384 46.7098 6.72961 46.7098 6.32464C46.7098 4.59614 46.7295 2.86763 46.6999 1.13912C46.69 0.309437 47.0654 0.0229981 47.8457 0.0822613C48.3889 0.12177 48.9618 0.161279 49.4951 0.0723841C51.4014 -0.233809 52.3101 0.408208 51.9447 2.44291C51.8558 2.90714 51.9249 3.39112 51.9249 3.85535Z" fill="#2C3136"/>
<path d="M3.69461 51.6902C3.53658 51.6902 3.37854 51.7099 3.23038 51.6902C2.26242 51.5519 0.770964 52.1939 0.445017 51.2951C-0.00933364 50.0506 -0.256263 48.1146 0.405508 47.2257C1.68954 45.4972 3.97117 46.8108 5.80833 46.5145C6.40096 46.4158 7.36893 46.1392 7.45782 47.2356C7.55659 48.4801 7.49733 49.7345 7.48745 50.979C7.47758 51.621 7.00347 51.6902 6.50961 51.6902C5.57128 51.6902 4.63294 51.6902 3.69461 51.6902Z" fill="#2C3136"/>
<path d="M94.7623 51.6909C94.6043 51.6909 94.4463 51.6909 94.2981 51.6909C91.2164 51.6909 89.9719 50.229 91.246 47.335C92.1152 45.3695 94.4265 46.7819 96.0562 46.5448C96.7773 46.4362 98.1206 45.8238 98.3379 47.3054C98.5058 48.4511 98.3477 49.6463 98.3873 50.8118C98.407 51.602 97.9329 51.6909 97.3304 51.6909C96.481 51.6909 95.6216 51.6909 94.7623 51.6909Z" fill="#2C3136"/>
<path d="M75.9167 8.33955C74.85 10.1569 73.8919 12.0435 72.677 13.7424C72.1535 14.4733 71.4127 13.5448 70.8596 13.2386C67.9063 11.6385 67.9162 11.6188 69.5558 8.76427C69.7138 8.49758 69.8422 8.21114 70.0299 7.96421C70.6126 7.16416 70.8694 5.51467 71.7485 5.67271C73.1214 5.91964 74.3561 6.96662 75.6204 7.70741C75.7685 7.7963 75.808 8.09262 75.9167 8.33955Z" fill="#2C3136"/>
<path d="M8.4852 22.4541C10.3717 23.5801 12.6534 24.3703 13.967 25.9605C14.6683 26.8099 12.8213 28.6076 12.0311 29.9114C11.4187 30.909 10.836 29.8027 10.2927 29.5953C9.57169 29.3187 8.87041 28.9039 8.25803 28.4397C7.42834 27.8174 5.71959 27.7186 5.91713 26.5235C6.12455 25.2197 7.16166 24.0345 7.86294 22.8196C7.96171 22.6418 8.24815 22.5825 8.4852 22.4541Z" fill="#2C3136"/>
<path d="M9.40355 36.4004C9.07761 37.6055 8.75166 38.8204 8.42571 40.0254C8.40596 40.1044 8.37633 40.213 8.32694 40.2328C6.15396 41.0921 4.39582 39.4229 2.39075 39.255C1.1561 39.1562 1.5018 38.2277 1.64008 37.4672C1.66972 37.3091 1.70923 37.161 1.75861 37.0128C2.92412 33.1015 2.19321 33.9015 5.68973 34.6719C6.68733 34.8892 7.64542 35.2349 8.63313 35.4917C9.11712 35.63 9.55171 35.7387 9.40355 36.4004Z" fill="#2C3136"/>
<path d="M9.34426 61.6472C9.70972 62.467 9.04794 62.5954 8.55408 62.7436C7.5071 63.0596 6.37123 63.188 5.38351 63.6128C3.25991 64.5313 2.39072 63.998 1.82772 61.667C1.32398 59.5928 1.7487 58.7927 3.74389 58.605C4.11923 58.5754 4.48468 58.3779 4.86989 58.2791C8.29728 57.3605 9.11708 57.9828 9.34426 61.6472Z" fill="#2C3136"/>
<path d="M90.6335 57.4487C92.9942 58.1006 94.7326 58.5846 96.4808 59.0488C97.034 59.197 97.2908 59.4736 97.1229 60.0563C97.0834 60.2045 97.0636 60.3625 97.0438 60.5205C96.4117 64.3924 96.3524 64.4319 92.5794 63.4244C92.2732 63.3454 91.9571 63.296 91.6707 63.1676C90.841 62.8022 89.2804 63.0688 89.2804 62.1009C89.2705 60.6687 89.9718 59.2266 90.4261 57.8142C90.5348 57.4685 90.9299 57.5475 90.6335 57.4487Z" fill="#2C3136"/>
<path d="M36.3488 9.27842C34.9857 7.7277 35.1734 5.44607 34.3634 3.59904C33.8992 2.5323 34.5709 2.19648 35.4401 2.02857C35.5191 2.00881 35.5981 2.00881 35.6672 1.98906C39.0946 0.971706 39.0946 0.971706 40.033 4.40897C40.1614 4.86332 40.2107 5.3473 40.4083 5.76214C41.3367 7.66844 40.5564 8.45861 38.6501 8.64628C38.0476 8.71542 37.455 8.97223 36.3488 9.27842Z" fill="#2C3136"/>
<path d="M87.3148 30.2672C86.4061 30.2869 86.3469 29.5066 86.0505 29.0325C84.1245 25.9607 84.1442 25.9508 87.1864 24.2026C87.3247 24.1235 87.463 24.0544 87.6013 23.9754C90.4163 22.3358 91.8188 22.9284 92.6979 26.1484C92.767 26.415 92.8164 26.899 92.688 26.9879C90.9002 28.1238 89.0828 29.2004 87.3148 30.2672Z" fill="#2C3136"/>
<path d="M89.2012 36.3411C89.2407 36.4596 89.1716 36.3509 89.2012 36.3213C90.7322 34.6916 92.9842 34.9286 94.851 34.178C95.9276 33.7434 96.1548 34.5138 96.4214 35.2941C97.6265 38.8894 97.6265 38.8795 93.8731 39.887C93.4188 40.0055 92.9447 40.0944 92.52 40.2722C90.9791 40.9438 90.0309 40.6969 89.8729 38.8005C89.8037 38.0399 89.4679 37.2893 89.2012 36.3411Z" fill="#2C3136"/>
<path d="M61.7728 9.6431C60.4888 7.99361 57.4663 9.39617 58.0293 6.86761C58.4442 5.00082 57.7627 1.99815 60.5283 1.51417C61.5061 1.34626 64.4001 1.07958 64.1828 3.40072C63.9952 5.39591 63.7087 7.81582 61.7728 9.6431Z" fill="#2C3136"/>
<path d="M14.2336 71.9783C14.1644 72.5018 13.8088 72.6697 13.473 72.8574C12.5939 73.371 11.7149 73.8649 10.8358 74.3785C8.12945 75.9292 8.25786 75.8502 6.59849 73.3216C5.53175 71.7017 5.81819 70.8918 7.47756 70.1905C8.18871 69.8942 8.81098 69.3411 9.53201 69.0645C10.3419 68.7583 11.1222 67.4348 11.9223 68.2645C12.9199 69.3016 13.5026 70.7535 14.2336 71.9783Z" fill="#2C3136"/>
<path d="M92.777 71.9389C92.1449 73.0254 91.4436 74.2403 90.7127 75.4354C90.5349 75.7218 90.1892 75.7613 89.883 75.5836C88.194 74.6057 86.505 73.6279 84.816 72.6599C84.2431 72.3241 84.4111 71.9487 84.6876 71.5043C85.142 70.7734 85.6259 70.0523 85.9519 69.2622C86.5346 67.8695 87.2853 67.8398 88.4409 68.6399C89.5274 69.3906 90.7423 69.9634 91.8782 70.645C92.3128 70.9018 92.9647 71.04 92.777 71.9389Z" fill="#2C3136"/>
<path d="M26.6491 5.52441C27.3109 5.58368 27.4886 6.03803 27.7158 6.44299C28.1899 7.2628 28.6541 8.08261 29.1283 8.89254C30.6888 11.5693 30.6395 11.4902 28.022 13.1397C26.5898 14.0484 25.6811 14.1867 25.0292 12.3693C24.7625 11.6384 24.1897 11.0359 23.8736 10.3247C23.5081 9.50492 22.2834 8.61597 22.9846 7.88506C23.9724 6.83808 25.4539 6.25533 26.6491 5.52441Z" fill="#2C3136"/>
<path d="M21.9872 17.3772C20.3674 18.9477 19.3797 20.2317 18.0858 21.0416C17.2758 21.5552 16.8511 20.1922 16.219 19.7181C15.5967 19.2539 15.1621 18.5427 14.53 18.0982C12.7224 16.8142 13.1175 15.866 14.5102 14.3548C16.1301 12.6065 17.0585 12.7843 18.4611 14.4634C19.3994 15.5697 20.7328 16.3598 21.9872 17.3772Z" fill="#2C3136"/>
<path d="M85.7047 16.3695C85.4282 16.6658 85.1319 17.0115 84.8158 17.3276C84.1046 18.0486 83.2848 18.6906 82.6823 19.5006C81.3884 21.2488 80.46 21.3081 78.8105 19.6389C77.1709 17.9795 77.1215 16.9918 78.9389 15.7275C79.2549 15.5102 79.4821 15.1645 79.7784 14.9077C80.5982 14.2163 81.3884 12.5964 82.149 12.9125C83.4231 13.436 84.3615 14.8089 85.4282 15.8361C85.5368 15.9448 85.5763 16.1127 85.7047 16.3695Z" fill="#2C3136"/>
<path d="M64.4888 30.4743C64.4098 30.7706 64.3703 30.9188 64.3308 31.0768C63.3134 35.1166 63.8369 35.65 67.9557 34.4252C69.1015 34.0894 69.6941 34.2375 70.188 35.3043C70.6127 36.2228 71.1164 37.1414 71.7189 37.9513C72.8153 39.4132 72.7955 40.5886 71.2053 41.6849C70.4151 42.2183 69.8422 42.8998 70.1781 44.0653C70.504 45.1814 71.2053 45.5765 72.2325 45.616C74.3462 45.7049 75.0673 46.8013 74.7907 48.8261C74.6623 49.7546 74.7216 50.7127 74.7808 51.651C74.8599 52.8066 74.4351 53.4091 73.2301 53.5178C72.035 53.6264 70.9781 53.8833 70.6423 55.3945C70.346 56.7378 70.9189 57.5279 71.8671 58.1699C73.0227 58.9502 73.161 59.7602 72.3412 60.8862C71.7387 61.706 71.1954 62.5949 70.8003 63.5333C70.1781 65.005 69.3978 65.4396 67.7384 64.8963C65.7827 64.2543 64.0937 66.1408 64.7456 68.1854C65.2395 69.7164 64.8148 70.5066 63.4221 71.1288C62.4245 71.5733 61.4861 72.1758 60.5774 72.7981C59.649 73.4401 58.9971 73.3808 58.1575 72.5215C56.5377 70.872 54.1276 71.5733 53.456 73.8846C53.13 75.0106 52.567 75.3859 51.4509 75.3069C50.1965 75.2279 48.9322 75.2279 47.6778 75.3069C46.5617 75.376 46.0283 75.0204 45.7024 73.8747C45.1493 71.9388 42.2651 71.2078 40.9317 72.7289C40.0033 73.7858 39.3612 73.6376 38.3834 72.9956C37.2772 72.2548 36.0919 71.6128 34.9264 70.9708C34.2054 70.5658 34.0177 70.0522 34.156 69.2225C34.5807 66.6248 32.9213 64.9951 30.3928 65.5976C29.4149 65.8347 28.9408 65.5778 28.5062 64.7778C27.9531 63.7308 27.4 62.6838 26.7283 61.7159C25.8986 60.5108 25.8394 59.6219 27.0246 58.4959C28.4371 57.1427 27.6271 54.5055 25.6912 54.1499C24.18 53.8734 23.696 53.2314 23.8244 51.7893C23.9232 50.6929 23.9133 49.5867 23.8244 48.4903C23.7158 47.1273 24.1899 46.4161 25.6221 46.3568C26.8864 46.3074 27.3901 45.5469 27.7852 44.332C28.2099 43.0085 27.6469 42.3467 26.7777 41.7837C25.4344 40.9244 25.5431 40.0058 26.3629 38.86C26.8666 38.1588 27.3407 37.4081 27.6469 36.6179C28.3581 34.8104 29.4643 34.1881 31.2323 35.2055C32.2991 35.8179 32.9312 35.2055 33.7016 34.5635C34.4424 33.9412 34.6103 33.3288 34.1757 32.5288C33.0398 30.4447 33.7806 29.1804 35.8548 28.3803C36.5067 28.1334 37.1389 27.7581 37.692 27.3334C38.9464 26.3456 39.8749 26.5827 40.8329 27.8173C41.4453 28.6075 41.9392 29.7236 43.4603 29.21C44.853 28.7458 44.9221 27.6791 45.0406 26.6321C45.2085 25.111 45.8604 24.3603 47.4704 24.5875C48.0828 24.6764 48.7347 24.6764 49.357 24.5875C51.6485 24.2517 53.1893 24.7851 53.1399 27.5013C53.13 28.3705 53.6832 28.8347 54.5326 29.1606C55.7673 29.6249 56.1821 28.6964 56.8933 28.1235C57.634 27.521 58.0094 25.9012 59.0959 26.395C60.9923 27.2642 62.9578 28.1631 64.4592 29.7039C64.6172 29.8718 64.4888 30.3064 64.4888 30.4743ZM63.0961 50.0608C63.106 42.159 57.1501 36.0944 49.357 36.0747C41.5836 36.0549 35.4894 42.1491 35.4696 49.9818C35.4499 57.7255 41.6626 63.9284 49.3866 63.8888C57.0612 63.8395 63.0863 57.765 63.0961 50.0608Z" fill="#FF8B00"/>
<path d="M63.0958 50.0605C63.0859 57.7746 57.0608 63.849 49.3862 63.8787C41.6623 63.9182 35.4495 57.7153 35.4693 49.9716C35.489 42.1489 41.5734 36.0447 49.3566 36.0645C57.1398 36.0941 63.0958 42.1587 63.0958 50.0605ZM40.7338 50.0704C40.7733 54.7818 44.6156 58.6042 49.3072 58.6141C54.1075 58.6141 57.93 54.7028 57.8905 49.8432C57.851 45.1416 53.989 41.2994 49.3171 41.2994C44.5168 41.2895 40.6943 45.2009 40.7338 50.0704Z" fill="#2C3136"/>
</svg>

<svg xmlns="http://www.w3.org/2000/svg" width="99" height="125" fill="none"><path d="M49.347 115.962c-7.013 0-14.016-.06-21.028.04-1.72.03-2.44-.326-2.203-2.163.198-1.55-.652-3.487 2.32-3.3 1.017.06.375-1.56.523-2.4.128-.72-.158-1.284-1.017-1.136-1.738.306-2.054-.68-1.768-2.015.277-1.264-1.254-3.556 1.916-3.338 1.66.118.7-1.393.85-2.153.138-.672.366-1.64-.998-1.6-.72.02-2.114.464-1.738-1.017.356-1.393-1.452-3.536 1.235-4.148 1.106-.247.632-.948.543-1.432-.425-2.34-1.304-4.465-2.766-6.42-7.22-9.66-12.327-20.317-13.75-32.387C9.984 39.94 14.47 29.33 23.724 21.033 34.7 11.224 47.6 8.518 61.526 13.23c14.044 4.75 22.39 14.914 25.394 29.384 1.63 7.843-.346 15.3-2.894 22.64-2.5 7.18-6.163 13.76-10.776 19.794-1.422 1.867-2.262 3.93-2.647 6.203-.08.444-.523 1.077.237 1.422.543.247 1.57-.415 1.6.78.04 1.333.168 2.706-.07 4-.158.88-1.215.444-1.847.444-11.418.03-22.836.05-34.254-.02-1.55-.01-2.163.227-2.163 1.985.01 1.7.662 1.847 2.064 1.847l34.017-.1c2.153-.03 2.47.74 2.3 2.538-.138 1.502.474 2.934-2.222 2.885l-34.017-.12c-1.62-.01-2.074.375-2.143 2.055-.08 1.985 1.027 1.688 2.203 1.688l34.017-.07c2.38-.03 2.193 1.146 2.153 2.687-.04 1.462.365 2.805-2.114 2.736-7.003-.188-14.016-.06-21.028-.06zm.03-23.636l13.927.03c1.403.03 1.906-.415 2.094-1.798.464-3.408 1.837-6.44 3.98-9.176 3.1-3.97 5.65-8.317 7.704-12.92 2.874-6.42 5.452-13.097 5.107-20.16-.672-13.66-7.388-23.834-20.04-29.197-12.633-5.363-24.614-3.27-34.876 5.877-8.1 7.22-11.98 16.485-10.54 27.44C18.125 63 22.58 72.413 28.9 80.927c2.213 2.973 3.842 6.134 4.307 9.798.178 1.383.77 1.63 1.985 1.62l14.184-.02zm-.09 27.33c5.028 0 10.065.128 15.083-.06 2.48-.088 1.847 1.443 1.867 2.727.02 1.343.474 2.716-1.946 2.676a1008.71 1008.71 0 0 0-29.928 0c-2.854.04-1.798-1.778-1.995-3.1-.247-1.62.158-2.35 2.074-2.292 4.95.158 9.897.05 14.845.05zm2.637-115.8c0 .158.02.316 0 .474-.168.958.553 2.43-.464 2.775-1.264.435-2.795.138-4.208.1-.484-.01-.543-.474-.543-.88V1.14C46.7.3 47.065.023 47.846.082c.543.04 1.116.08 1.65-.01 1.906-.306 2.815.336 2.45 2.37-.1.464-.02.948-.02 1.412zM3.695 51.7c-.158 0-.316.02-.464 0-.968-.138-2.46.504-2.785-.395-.454-1.244-.7-3.18-.04-4.07 1.284-1.73 3.566-.415 5.403-.7.593-.1 1.56-.375 1.65.72.1 1.245.04 2.5.03 3.743-.01.642-.484.7-.978.7H3.695zm91.067-.01h-.464c-3.082 0-4.326-1.462-3.052-4.356.87-1.965 3.18-.553 4.8-.8.72-.1 2.064-.72 2.282.76.168 1.146.01 2.34.05 3.506.02.8-.454.88-1.057.88h-2.568zM75.917 8.34l-3.24 5.403c-.524.73-1.264-.198-1.817-.504-2.953-1.6-2.943-1.62-1.304-4.474.158-.267.286-.553.474-.8.583-.8.84-2.45 1.72-2.3 1.373.247 2.608 1.294 3.872 2.035.148.1.188.385.296.632zM8.485 22.454c1.886 1.126 4.168 1.916 5.482 3.506.7.85-1.146 2.647-1.936 3.95-.612.998-1.195-.1-1.738-.316a8.46 8.46 0 0 1-2.035-1.156c-.83-.622-2.538-.72-2.34-1.916.207-1.304 1.245-2.5 1.946-3.704.1-.178.385-.237.622-.366zm.92 13.946l-.978 3.625c-.02.08-.05.188-.1.207-2.173.86-3.93-.8-5.936-.978-1.235-.1-.9-1.027-.75-1.788a3.36 3.36 0 0 1 .12-.454c1.166-3.9.435-3.1 3.93-2.34.998.217 1.956.563 2.943.82.484.138.92.247.77.9zm-.06 25.247c.365.82-.296.948-.8 1.096-1.047.316-2.183.444-3.17.87-2.124.92-2.993.385-3.556-1.946-.504-2.074-.08-2.874 1.916-3.062.375-.03.74-.227 1.126-.326 3.427-.92 4.247-.296 4.474 3.368zm81.3-4.197l5.847 1.6c.553.148.8.425.642 1.008-.04.148-.06.306-.08.464-.632 3.872-.7 3.9-4.464 2.904-.306-.08-.622-.128-.9-.257-.83-.365-2.4-.1-2.4-1.067-.01-1.432.7-2.874 1.146-4.287.1-.346.504-.267.207-.365zM36.35 9.278c-1.363-1.55-1.175-3.832-1.985-5.68-.464-1.067.208-1.403 1.077-1.57.08-.02.158-.02.227-.04C39.095.972 39.095.972 40.033 4.4c.128.454.178.938.375 1.353.928 1.906.148 2.696-1.758 2.884-.602.07-1.195.326-2.3.632zm50.965 20.99c-.9.02-.968-.76-1.264-1.235-1.926-3.072-1.906-3.082 1.136-4.83l.415-.227c2.815-1.64 4.218-1.047 5.097 2.173.07.267.118.75-.01.84l-5.373 3.28zM89.2 36.34c.04.12-.03.01 0-.02 1.53-1.63 3.783-1.393 5.65-2.143 1.077-.435 1.304.336 1.57 1.116 1.205 3.595 1.205 3.585-2.548 4.593-.454.118-.928.207-1.353.385-1.54.672-2.5.425-2.647-1.472-.07-.76-.405-1.5-.672-2.46zM61.773 9.643c-1.284-1.65-4.306-.247-3.743-2.775.415-1.867-.267-4.87 2.5-5.353.978-.168 3.872-.435 3.654 1.887-.188 1.995-.474 4.415-2.4 6.242zm-47.54 62.335c-.07.523-.425.7-.76.88l-2.637 1.52C8.13 75.928 8.26 75.85 6.6 73.32c-1.067-1.62-.78-2.43.88-3.13.7-.296 1.333-.85 2.054-1.126.8-.306 1.6-1.63 2.4-.8.998 1.037 1.58 2.5 2.3 3.714zm78.543-.038l-2.064 3.496c-.178.286-.523.326-.83.148l-5.067-2.924c-.573-.336-.405-.7-.128-1.156.454-.73.938-1.452 1.264-2.242.583-1.393 1.333-1.422 2.5-.622 1.087.75 2.3 1.323 3.437 2.005.435.257 1.086.395.9 1.294zM26.65 5.524c.662.06.84.514 1.067.92l1.412 2.45c1.56 2.677 1.5 2.598-1.106 4.247-1.432.9-2.34 1.047-2.993-.77-.267-.73-.84-1.333-1.156-2.045-.366-.82-1.6-1.7-.9-2.44.988-1.047 2.47-1.63 3.665-2.36zm-4.663 11.853c-1.62 1.57-2.608 2.855-3.9 3.664-.8.514-1.235-.85-1.867-1.323-.622-.464-1.057-1.175-1.7-1.62-1.808-1.284-1.412-2.232-.02-3.743 1.62-1.748 2.548-1.57 3.95.1.938 1.106 2.272 1.896 3.526 2.914zm63.718-1.007l-.9.958c-.7.72-1.53 1.363-2.133 2.173-1.294 1.748-2.222 1.808-3.872.138-1.64-1.66-1.7-2.647.128-3.9.316-.217.543-.563.84-.82.82-.7 1.6-2.3 2.37-1.995 1.274.524 2.213 1.896 3.28 2.924.1.1.148.277.276.533z" fill="#2c3136"/><path d="M64.49 30.474l-.158.602c-1.017 4.04-.494 4.573 3.625 3.348 1.146-.336 1.738-.188 2.232.88.425.92.928 1.837 1.53 2.647 1.096 1.462 1.077 2.637-.514 3.734-.8.533-1.363 1.215-1.027 2.38.326 1.116 1.027 1.51 2.054 1.55 2.114.09 2.835 1.185 2.558 3.2-.128.93-.07 1.887-.01 2.825.08 1.156-.346 1.758-1.55 1.867-1.195.11-2.252.365-2.588 1.877-.296 1.343.277 2.133 1.225 2.775 1.156.78 1.294 1.6.474 2.716-.603.82-1.146 1.71-1.54 2.647-.622 1.472-1.402 1.906-3.062 1.363-1.956-.642-3.645 1.245-2.993 3.29.494 1.53.07 2.32-1.323 2.943-.998.445-1.936 1.047-2.845 1.67-.928.642-1.58.583-2.42-.277-1.62-1.65-4.03-.948-4.7 1.363-.326 1.126-.89 1.5-2.005 1.422-1.254-.08-2.52-.08-3.773 0-1.116.07-1.65-.287-1.975-1.432-.553-1.936-3.437-2.667-4.77-1.146-.928 1.057-1.57.91-2.548.267-1.106-.74-2.29-1.383-3.457-2.025-.72-.405-.91-.92-.77-1.748.425-2.598-1.235-4.227-3.763-3.625-.978.237-1.452-.02-1.887-.82l-1.778-3.062c-.83-1.205-.89-2.094.296-3.22 1.413-1.353.602-4-1.333-4.346-1.51-.277-1.995-.92-1.867-2.36.1-1.096.09-2.203 0-3.3-.11-1.363.366-2.074 1.798-2.133 1.264-.05 1.768-.8 2.163-2.025.425-1.324-.138-1.985-1.008-2.548-1.343-.86-1.235-1.778-.415-2.924.504-.7.978-1.452 1.284-2.242.71-1.807 1.817-2.43 3.585-1.412 1.067.612 1.7 0 2.47-.642.74-.622.91-1.235.474-2.035-1.136-2.084-.395-3.348 1.68-4.148.652-.247 1.284-.622 1.837-1.047 1.254-.988 2.183-.75 3.14.484.612.8 1.106 1.906 2.627 1.393 1.393-.464 1.462-1.53 1.58-2.578.168-1.52.82-2.272 2.43-2.045.612.09 1.264.09 1.887 0 2.29-.336 3.832.198 3.783 2.914-.01.87.543 1.333 1.393 1.66 1.235.464 1.65-.464 2.36-1.037.74-.602 1.116-2.222 2.203-1.73 1.896.87 3.862 1.768 5.363 3.31.158.168.03.602.03.77zM63.096 50.06c.01-7.902-5.946-13.966-13.74-13.986-7.773-.02-13.868 6.074-13.887 13.907a13.81 13.81 0 0 0 13.917 13.907c7.675-.05 13.7-6.124 13.71-13.828z" fill="#ff8b00"/><path d="M63.096 50.06c-.01 7.714-6.035 13.79-13.7 13.818-7.724.04-13.937-6.163-13.917-13.907.02-7.823 6.104-13.927 13.887-13.907 7.783.03 13.74 6.094 13.74 13.996zm-22.362.01c.04 4.71 3.882 8.534 8.573 8.544 4.8 0 8.623-3.91 8.583-8.77-.04-4.702-3.902-8.544-8.573-8.544-4.8-.01-8.623 3.9-8.583 8.77z" fill="#2c3136"/></svg>
